fonts/times-new-roman/bubble/glyphs/07_zayin.svg

<?xml version="1.0" encoding="utf-8"?>
<svg version="1.1" viewBox="-10 0 596 2048" xmlns="http://www.w3.org/2000/svg">
  <path fill="none" stroke="black" stroke-width="40" d="M 510 794 C 456 806 407.153 813.166 340.486 813.166 C 325.124 855.686 307.914 940.95 306 984 C 303.305 1044.607 313.667 1109.333 329 1178 C 355 1300.667 368 1389.667 368 1445 C 368 1575 320.667 1647.667 226 1663 L 209 1643 C 229 1614.333 239 1577.667 239 1533 C 239 1491.667 233.667 1430.333 223 1349 C 212.333 1267.667 207 1206.667 207 1166 C 207 1041.333 223.261 924.251 252.203 811.567 C 113.536 811.567 78 762.333 78 667 C 78 604.333 96.333 549.667 133 503 L 160 503 C 168 541 190 564 226 572 C 364 577.333 447.333 591.667 476 615 C 504.667 638.333 519 678.333 519 735 C 519 753 516 772.667 510 794 Z"/>
</svg>

<?xml version="1.0" standalone="no"?>
<!DOCTYPE svg PUBLIC "-//W3C//DTD SVG 1.1//EN" "http://www.w3.org/Graphics/SVG/1.1/DTD/svg11.dtd" >
<svg xmlns="http://www.w3.org/2000/svg" xmlns:xlink="http://www.w3.org/1999/xlink" version="1.1" viewBox="-10 0 596 2048">
   <path fill="none" stroke="black" stroke-width="40"
d="M510 794q-81 18 -181 18q-23 108 -23 172q0 91 23 194q39 184 39 267q0 195 -142 218l-17 -20q30 -43 30 -110q0 -62 -16 -184t-16 -183q0 -187 79 -356q-208 0 -208 -143q0 -94 55 -164h27q12 57 66 69q207 8 250 43t43 120q0 27 -9 59z" />
</svg>
